X:128
T:Apples in Winter
R:jig
H:See also #447 in Bdor
Z:id:hn-jig-128
M:6/8
K:Edor
BEE dEE | BAG FGE | DED FDF | ABc ded |
BEE BAB | def g2e | fdB AGF |1 GEE E2A :|2 GEE E2B ||
|: efe edB | g2e fdB | ded dAF | DFA def |1 efe edB | def g2a |
bgb agf | gee e2d :|2 edB def | gba gfe | fdB AGF | GEE E2A ||
P:variations
|: BEE dEE | BAG FGE | D2D FDF | ABc dcd |
BEE BAB | def g2e | fdB AGF |1 GEE E2A :|2 GEE E2d ||
|: ~e3 edB | ege fdB | ded dAF | DFA def |1 efe edB | def g2a |
bgb afa | gee e2d :|2 efe edB | def gba | gfe dBA | BGE E3 ||
P:four part version
|: BEE dEE | BAG FGE | ~D3 FDF | ABc d2c |
~B3 BAB | def gfe | fdB AGF |1 GED EFA :|2 GED E2B ||
|: efe edB | ~g3 fdB | ded dAF | DFA def |
[1 efe edB | def g2a | bgb afa | ged e2d :|
[2 edB def | gba gfe | fdB AGF | GED EFA ||
|: BdB cec | ded BAF | ~D3 FDF | ABc ded |
BdB cec | def gfe | def g2a |1 bge edc :|2 bge e2f ||
|: gef gef | gef gfe | dfe d2A | def def |
edB def | gba gfe | fdB AGF |1 GED E2f :|2 GED E2A || 

